!!!COM: Scriabin, Alexander
!!!OTL@@FR: Prélude
!!!OTL@@EN: Prelude
!!!OPR@@FR: 4 Préludes
!!!OPR@@EN: 4 Preludes
!!!OPS: 31
!!!ONM: 3
!!!ODT: 1903
!!!AGN: Prelude
**kern	**kern	**dynam
*staff2	*staff1	*staff1/2
*Ipiano	*Ipiano	*
*clefF4	*clefG2	*
*k[b-e-a-d-g-c-]	*k[b-e-a-d-g-c-]	*
*e-:	*e-:	*
*M2/2	*M2/2	*
=1	=1	=1
2EE- 2E-	10FL	.
.	10G-	.
.	10f	.
.	10e-	.
.	10c-J	.
4DD- 4D-	10B-L	.
.	10G-	.
.	10An	.
4CC- 4C-	.	.
.	10F	.
.	10E-J	.
=2	=2	=2
4.EE- 4.E-	10FL	.
.	10G-	.
.	10f	.
.	10e-	.
8EE- 8E-	.	.
.	10B-J	.
4.EE- 4.E-	10d-L	.
.	10B--	.
.	10cn	.
.	10A-	.
8AAA- 8AA-	.	.
.	10G-J	.
=3	=3	=3
2DD- 2D-	10E-L	.
.	10F-X	.
.	10e-	.
.	10d-	.
.	10B--J	.
4CC- 4C-	10A-L	.
.	10F-	.
.	10Gn	.
4BBB-- 4BB--	.	.
.	10E-	.
.	10D-J	.
*	*clefF4	*
=4	=4	=4
4.FF-X	10B--L	.
.	10F-X	.
.	10A-	.
.	10F-	.
8AAA- 8AA-	.	.
.	10C-J	.
2BBB- 2BB-	10G-L	.
.	10Dn	.
.	10F-	.
.	10D	.
.	10BB-J	.
*	*clefG2	*
=5	=5	=5
2EE- 2E-	10FL	.
.	10G-	.
.	10f	.
.	10e-	.
.	10c-J	.
4DD- 4D-	10B-L	.
.	10G-	.
.	10An	.
4CC- 4C-	.	.
.	10F	.
.	10E-J	.
=6	=6	=6
4.EE- 4.E-	10FL	.
.	10G-	.
.	10f	.
.	10e-	.
8EE- 8E-	.	.
.	10B-J	.
4.EE- 4.E-	10d-L	.
.	10B--	.
.	10cn	.
.	10A-	.
8AAA- 8AA-	.	.
.	10G-J	.
=7	=7	=7
4.DD- 4.D-	10E-L	.
.	10F-X	.
.	10e-	.
.	10d-	.
8DD- 8D-	.	.
.	10A-J	.
4.DD- 4.D-	10c-L	.
.	10A--	.
.	10B-	.
.	10G-	.
8DD- 8D-	.	.
.	10F-J	.
*	*clefF4	*
=8	=8	=8
2.CC- 2.C-	10d-L	.
.	10G-	.
.	10c-	.
.	10G-	.
.	10E-J	.
.	10B-L	.
.	10G-	.
.	10An	.
4CC- 4C-	.	.
.	10F	.
.	10E-J	.
=9	=9	=9
4GGG- 4GG-	10c-L	.
.	10G-	.
.	10B-	.
4r	.	.
.	10G-	.
.	10E-J	.
4r	10e-L	.
.	10c-	.
.	10dn	.
4GGGn 4GGn	.	.
.	10B-	.
.	10F-XJ	.
=10	=10	=10
4AAA- 4AA-	10d-XL	.
.	10A-	.
.	10c-	.
4r	.	.
.	10A-	.
.	10F-XJ	.
*	*clefG2	*
4r	10f-XL	.
.	10c-	.
.	10e-	.
4AAAn 4AAn	.	.
.	10c-	.
.	10G-J	.
=11	=11	=11
4BBB- 4BB-	10b-L	.
.	10e-	.
.	10an	.
4GG- 4G-	.	.
.	10e-	.
.	10c-J	.
4r	10ee-L	.
.	10e-	.
.	10a	.
4r	.	.
.	10e-	.
.	10c-J	.
=12	=12	=12
2FF 2F	10anL	.
.	10e-	.
.	10a-X	.
.	10e-	.
.	10c-J	.
4BBB- 4BB-	10g-L	.
.	10dn	.
.	10f	.
4AAA- 4AA-	.	.
.	10d	.
.	10B-J	.
=13	=13	=13
6EE- 6E-	10c-L	.
.	10G-	.
6GGG- 6GG-	.	.
.	10B-	.
.	10G-	.
6r	.	.
.	10E-J	.
6FF-X 6F-X	10e-L	.
.	10c-	.
6GGGn 6GGn	.	.
.	10dn	.
.	10B-	.
6r	.	.
.	10FJ	.
=14	=14	=14
6FF-X 6F-X	10d-XL	.
.	10A-	.
6AAA- 6AA-	.	.
.	10c-	.
.	10A-	.
6r	.	.
.	10FJ	.
6GG- 6G-	10f-XL	.
.	10c-	.
6AAAn 6AAn	.	.
.	10e-	.
.	10c-	.
6r	.	.
.	10G-J	.
=15	=15	=15
6GG- 6G-	10b-L	.
.	10e-	.
6BBB- 6BB-	.	.
.	10an	.
.	10e-	.
6r	.	.
.	10c-J	.
6GG- 6G-	10ee-L	.
.	10e-	.
6BBB- 6BB-	.	.
.	10a	.
.	10e-	.
6r	.	.
.	10c-J	.
=16	=16	=16
6FF 6F	10anL	.
.	10e-	.
6BBB- 6BB-	.	.
.	10a-X	.
.	10e-	.
6r	.	.
.	10c-J	.
2BB- 2B-	10g-L	.
.	10dn	.
.	10f	.
.	10d	.
.	10A-J	.
=17	=17	=17
2EE- 2E-	10fL	.
.	10B-	.
.	10e-	.
.	10B-	.
.	10G-J	.
6AAAn 6AAn	10c-L	.
.	10G-	.
6BBB- 6BB-	.	.
.	10B-	.
.	10G-	.
6r	.	.
.	10E-J	.
=18	=18	=18
1CC- 1C-	10B-L	.
.	10G-	.
.	10An	.
.	10F	.
.	10E-J	.
.	10B-L	.
.	10G-	.
.	10A	.
.	10F	.
.	10E-J	.
=19	=19	=19
2EE- 2E-	10fL	.
.	10B-	.
.	10e-	.
.	10B-	.
.	10G-J	.
6AAAn 6AAn	10c-L	.
.	10G-	.
6BBB- 6BB-	.	.
.	10B-	.
.	10G-	.
6r	.	.
.	10E-J	.
=20	=20	=20
1CC- 1C-	10B-L	.
.	10G-	.
.	10An	.
.	10F	.
.	10E-J	.
.	10B-L	.
.	10G-	.
.	10A	.
.	10F	.
.	10E-J	.
=21	=21	=21
1r	1r	.
=22	=22	=22
[2CC- [2C-	10B-L	.
.	10G-	.
.	10An	.
.	10F	.
.	10E-J	.
4CC-] 4C-]	10B-L	.
.	10G-	.
.	10A	.
4r	.	.
.	10F	.
.	20E-Jk	.
.	20r	.
=23	=23	=23
*	*^	*
10CC-L 10C-	10FL 10f	5e-	.
10EEE-J 10EE-	10G- 10g-	.	.
5.G- 5.c- 5.g-	10f 10ff	5.cc-	.
.	10e- 10ee-	.	.
.	10c-J 10cc-	.	.
2r	10b-L	5B-	.
.	10g-	.	.
.	10an	5.An	.
.	10f	.	.
.	20e-Jk	.	.
.	20raa	.	.
*	*v	*v	*
=24	=24	=24
8EE-L 8BB- 8G-	8e-L 8b- 8ee-	.
8EEE-J 8EE-	8E-J	.
4r	4r	.
2r	2r	.
==	==	==
*-	*-	*-
!!!system-decoration: {(*)}
!!!ENC: Bryan Jacob Bell
!!!END: November 2021 to April 2022
!!!PED: Konstantin Igumnov and Yakov Milstein
!!!PTL: A.N. Skryabin: Polnoe sobranie sochinenii dlia fortepiano (Muzgiz)
